X: 7
T: The Sligo Maid
R: reel
M: 4/4
L: 1/8
K: Edor
D3F | E3G FABA |dBAF EDB,E |D2ED D2ED |A,B,DE F2F2|E3G F3A|dBAF EDB,E|DF3 EB,3| A,B,DE FEED|GAFA E3A |dBAF EDB,E |D2ED D2ED |A,B,DE F2F2|E3G F3A|dBcA BAFB|AF3 EB,3| A,B,DE FE3|BeeB e2de|faec dBAd|Bd3 d3B|ABde f2ed|B(3eee e2de|faec dBA2|Bd3 B3d | AFDE FE3|BeeB e2de|faec dBAd|Bd3 d3B|ABde f2af|fgfg e2de|faec dBAd|dBAd BAFB| AFDE FE3|]


Tune 399	Setting 13248

